rospo-icon-theme-classic-common/64x64/apps/mailspring.svg

<svg height="64" viewBox="0 0 64 64" width="64" xmlns="http://www.w3.org/2000/svg"><path d="m32 5a28 28 0 0 0 -28 28 28 28 0 0 0 28 28 28 28 0 0 0 28-28 28 28 0 0 0 -28-28z" opacity=".2"/><path d="m32 4a28 28 0 0 0 -28 28 28 28 0 0 0 28 28 28 28 0 0 0 28-28 28 28 0 0 0 -28-28z" fill="#23b7fb"/><path d="m16 20.99998 16 16 16-16zm32 3.03906-10.48046 10.48048 10.48046 10.48046zm-32 .002v20.95898l10.48048-10.4805-10.48048-10.47852zm11.89454 11.89254-9.0664 9.0664h26.34374l-9.0664-9.0664-1.82618 1.82616c-1.0134 1.01264-3.54518 1.01264-4.55858 0z" opacity=".2"/><path d="m16 19.99998 16 16 16-16zm32 3.03906-10.48046 10.48048 10.48046 10.48046zm-32 .002v20.95898l10.48048-10.4805-10.48048-10.47852zm11.89454 11.89254-9.0664 9.0664h26.34374l-9.0664-9.0664-1.82618 1.82616c-1.0134 1.01264-3.54518 1.01264-4.55858 0z" fill="#a7ffe8"/><path d="m32 4a28 28 0 0 0 -28 28 28 28 0 0 0  .0214844.40625 28 28 0 0 1 27.9785156-27.40625 28 28 0 0 1 27.978516 27.578125 28 28 0 0 0  .021484-.578125 28 28 0 0 0 -28-28z" fill="#fff" opacity=".2"/></svg>

<svg xmlns="http://www.w3.org/2000/svg" width="64" height="64" version="1.1" viewBox="0 0 64 64">
 <path style="opacity:0.2" d="M 32,5 A 28,28 0 0 0 4,33 28,28 0 0 0 32,61 28,28 0 0 0 60,33 28,28 0 0 0 32,5 Z"/>
 <path style="fill:#23b7fb" d="M 32,4 A 28,28 0 0 0 4,32 28,28 0 0 0 32,60 28,28 0 0 0 60,32 28,28 0 0 0 32,4 Z"/>
 <path style="opacity:0.2" d="m 16,20.99998 16,16 16,-16 -32,0 z M 48,24.03904 37.51954,34.51952 48,44.99998 48,24.03904 Z m -32,0.002 0,20.95898 L 26.48048,34.51952 16,24.041 Z m 11.89454,11.89254 -9.0664,9.0664 26.34374,0 -9.0664,-9.0664 -1.82618,1.82616 c -1.0134,1.01264 -3.54518,1.01264 -4.55858,0 l -1.82618,-1.82616 z"/>
 <path style="fill:#a7ffe8" d="m 16,19.99998 16,16 16,-16 -32,0 z M 48,23.03904 37.51954,33.51952 48,43.99998 48,23.03904 Z m -32,0.002 0,20.95898 L 26.48048,33.51952 16,23.041 Z m 11.89454,11.89254 -9.0664,9.0664 26.34374,0 -9.0664,-9.0664 -1.82618,1.82616 c -1.0134,1.01264 -3.54518,1.01264 -4.55858,0 l -1.82618,-1.82616 z"/>
 <path style="opacity:0.2;fill:#ffffff" d="M 32 4 A 28 28 0 0 0 4 32 A 28 28 0 0 0 4.0214844 32.40625 A 28 28 0 0 1 32 5 A 28 28 0 0 1 59.978516 32.578125 A 28 28 0 0 0 60 32 A 28 28 0 0 0 32 4 z"/>
</svg>
